icons/svg/sport/beachvolleyball.svg

<?xml version="1.0" encoding="UTF-8" standalone="no"?>
<!-- Created with Inkscape (http://www.inkscape.org/) -->

<svg
   xmlns:dc="http://purl.org/dc/elements/1.1/"
   xmlns:cc="http://creativecommons.org/ns#"
   xmlns:rdf="http://www.w3.org/1999/02/22-rdf-syntax-ns#"
   xmlns:svg="http://www.w3.org/2000/svg"
   xmlns="http://www.w3.org/2000/svg"
   xmlns:sodipodi="http://sodipodi.sourceforge.net/DTD/sodipodi-0.dtd"
   xmlns:inkscape="http://www.inkscape.org/namespaces/inkscape"
   version="1.0"
   width="580"
   height="580"
   id="svg2"
   sodipodi:version="0.32"
   inkscape:version="0.91 r"
   sodipodi:docname="beachvolleyball.svg"
   inkscape:output_extension="org.inkscape.output.svg.inkscape">
  <metadata
     id="metadata2975">
    <rdf:RDF>
      <cc:Work
         rdf:about="">
        <dc:format>image/svg+xml</dc:format>
        <dc:type
           rdf:resource="http://purl.org/dc/dcmitype/StillImage" />
        <cc:license
           rdf:resource="http://web.resource.org/cc/PublicDomain" />
        <dc:language>en</dc:language>
        <dc:title />
      </cc:Work>
    </rdf:RDF>
  </metadata>
  <sodipodi:namedview
     inkscape:window-height="1006"
     inkscape:window-width="1920"
     inkscape:pageshadow="2"
     inkscape:pageopacity="0.0"
     guidetolerance="10.0"
     gridtolerance="10.0"
     objecttolerance="10.0"
     borderopacity="1.0"
     bordercolor="#666666"
     pagecolor="#ffffff"
     id="base"
     inkscape:zoom="0.46083856"
     inkscape:cx="298.27001"
     inkscape:cy="556.91528"
     inkscape:window-x="1920"
     inkscape:window-y="0"
     inkscape:current-layer="svg2"
     showgrid="false"
     inkscape:window-maximized="1" />
  <defs
     id="defs4">
    <inkscape:perspective
       sodipodi:type="inkscape:persp3d"
       inkscape:vp_x="0 : 290 : 1"
       inkscape:vp_y="0 : 1000 : 0"
       inkscape:vp_z="580 : 290 : 1"
       inkscape:persp3d-origin="290 : 193.33333 : 1"
       id="perspective10" />
  </defs>
  <g
     id="g1327">
    <path
       d="M 66.275,1.768 C 24.94,1.768 1.704,23.139 1.704,66.804 l 0,450.123 c 0,40.844 20.895,62.229 62.192,62.229 l 452.024,0 c 41.307,0 62.229,-20.315 62.229,-62.229 l 0,-450.123 c 0,-42.601 -20.922,-65.036 -63.521,-65.036 -0.004,0 -448.495,-0.143 -448.353,0 z"
       style="fill:#111111;stroke:#eeeeee;stroke-width:3.40799999"
       id="path1329"
       inkscape:connector-curvature="0" />
  </g>
  <path
     style="fill:#ffffff"
     inkscape:connector-curvature="0"
     d="m 74.982344,132.77452 124.680996,110.68 c 1.234,1.096 2.58,1.983 3.991,2.68 l 66.268,92.467 c 0.66,2.077 1.61,4.1 2.875,6.006 l 92.012,138.683 c 4.621,6.964 12.248,10.735 20.023,10.735 4.557,0 9.166,-1.297 13.248,-4.005 11.046,-7.329 14.06,-22.225 6.73,-33.271 l -82.501,-124.348 9.454,-6.775 81.717,123.168 c 4.62,6.965 12.248,10.735 20.023,10.735 4.557,0 9.166,-1.296 13.247,-4.004 11.047,-7.329 14.061,-22.225 6.731,-33.271 l -92.01,-138.683 c -0.078,-0.117 -0.162,-0.229 -0.241,-0.345 -0.419,-0.791 -0.874,-1.569 -1.41,-2.317 l -51.096,-71.297 131.663,2.651 c 0.124,0.002 0.246,0.003 0.369,0.003 9.773,0 17.794,-7.823 17.991,-17.64 0.2,-9.94 -7.695,-18.161 -17.636,-18.361 l -166.687,-3.357 c -6.338,-0.127 -11.937,3.013 -15.24,7.861 l -11.577,8.296 -27.42636,21.64832 c 0,0 -82.98106,-70.85197 -121.299636,-104.86732 -7.436,-6.599998 -18.814,-5.923998 -25.414,1.512 -6.597,7.437 -5.92,18.815 1.515,25.416 z"
     id="path29"
     sodipodi:nodetypes="ccccccscccccscccccccsccccccccc" />
  <circle
     style="fill:#ffffff"
     cx="107.11327"
     cy="55.456383"
     r="37.093616"
     id="circle31" />
  <path
     style="fill:none;fill-opacity:1;stroke:#ffffff;stroke-width:21.344244;stroke-miterlimit:4;stroke-dasharray:none;stroke-opacity:1"
     inkscape:connector-curvature="0"
     d="m 536.49146,521.67374 c -0.43827,-2.20871 -2.39809,-3.60401 -4.38089,-3.11842 -10.96324,2.69737 -41.92349,8.03885 -53.38381,0.47535 -17.30947,-11.42363 -51.9275,-0.87488 -53.39117,-0.42105 l -0.37028,0.11474 -0.34087,0.19771 c -0.37029,0.21411 -37.29177,21.21736 -63.81599,0.28992 -16.37688,-12.92444 -57.82167,-1.92903 -62.49383,-0.63208 l -0.23981,0.0758 c -0.36201,0.1301 -36.36009,12.83941 -54.31456,0.419 -30.05062,-20.78811 -63.07727,-2.16364 -66.32067,-0.23768 -2.76838,1.20783 -38.72327,16.37274 -61.54837,0.25817 -19.012026,-13.42438 -70.403859,-1.0726 -72.583278,-0.54091 -1.982793,0.48456 -3.237889,2.66869 -2.803291,4.88047 0.434597,2.20974 2.392583,3.60708 4.377214,3.12559 14.018293,-3.42575 53.39484,-10.20043 67.075925,-0.54091 26.79803,18.9226 66.73873,1.10129 68.42567,0.33193 l 0.38038,-0.20182 c 0.31516,-0.19157 31.76329,-19.03323 59.11995,-0.10962 20.42976,14.13432 57.44496,1.47931 60.31808,0.46305 11.88941,-3.27618 44.84255,-9.68718 56.35892,-0.60032 10.34122,8.16075 21.79879,10.87042 32.45699,10.87042 19.21233,0 35.82994,-8.80616 38.6369,-10.37459 9.44446,-2.86641 35.32643,-8.23247 47.32794,-0.31451 16.29326,10.75159 56.98739,0.89845 58.71107,0.47535 1.98464,-0.48866 3.23606,-2.67586 2.79778,-4.8856 z"
     id="path33" />
  <circle
     style="fill:#ffffff"
     cx="219.66995"
     cy="135.09227"
     r="43.061001"
     id="circle31-3" />
</svg>

<svg width="580" height="580" viewBox="0 0 580 580" fill="none" xmlns="http://www.w3.org/2000/svg">
<g clip-path="url(#clip0)">
<path d="M66.2751 1.76815C24.9401 1.76815 1.7041 23.1391 1.7041 66.8041V516.927C1.7041 557.771 22.5991 579.156 63.8961 579.156H515.92C557.227 579.156 578.149 558.841 578.149 516.927V66.8041C578.149 24.2031 557.227 1.76815 514.628 1.76815C514.624 1.76815 66.1331 1.62515 66.2751 1.76815V1.76815Z" fill="#111111" stroke="#EEEEEE" stroke-width="3.408"/>
<path d="M74.9822 132.775L199.663 243.455C200.897 244.551 202.243 245.438 203.654 246.135L269.922 338.602C270.582 340.679 271.532 342.702 272.797 344.608L364.809 483.291C369.43 490.255 377.057 494.026 384.832 494.026C389.389 494.026 393.998 492.729 398.08 490.021C409.126 482.692 412.14 467.796 404.81 456.75L322.309 332.402L331.763 325.627L413.48 448.795C418.1 455.76 425.728 459.53 433.503 459.53C438.06 459.53 442.669 458.234 446.75 455.526C457.797 448.197 460.811 433.301 453.481 422.255L361.471 283.572C361.393 283.455 361.309 283.343 361.23 283.227C360.811 282.436 360.356 281.658 359.82 280.91L308.724 209.613L440.387 212.264C440.511 212.266 440.633 212.267 440.756 212.267C450.529 212.267 458.55 204.444 458.747 194.627C458.947 184.687 451.052 176.466 441.111 176.266L274.424 172.909C268.086 172.782 262.487 175.922 259.184 180.77L247.607 189.066L220.181 210.714C220.181 210.714 137.2 139.862 98.8812 105.847C91.4452 99.2466 80.0672 99.9226 73.4672 107.359C66.8702 114.796 67.5472 126.174 74.9822 132.775V132.775Z" fill="white"/>
<path d="M107.113 92.55C127.599 92.55 144.207 75.9426 144.207 55.4564C144.207 34.9702 127.599 18.3628 107.113 18.3628C86.6269 18.3628 70.0195 34.9702 70.0195 55.4564C70.0195 75.9426 86.6269 92.55 107.113 92.55Z" fill="white"/>
<path d="M536.491 521.674C536.053 519.465 534.093 518.07 532.11 518.555C521.147 521.253 490.187 526.594 478.727 519.03C461.417 507.607 426.799 518.156 425.335 518.609L424.965 518.724L424.624 518.922C424.254 519.136 387.332 540.139 360.808 519.212C344.431 506.287 302.987 517.283 298.314 518.58L298.075 518.656C297.713 518.786 261.715 531.495 243.76 519.075C213.709 498.286 180.683 516.911 177.439 518.837C174.671 520.045 138.716 535.21 115.891 519.095C96.879 505.671 45.4872 518.022 43.3078 518.554C41.325 519.039 40.0699 521.223 40.5045 523.435C40.9391 525.644 42.897 527.042 44.8817 526.56C58.9 523.134 98.2765 516.36 111.958 526.019C138.756 544.942 178.696 527.121 180.383 526.351L180.764 526.149C181.079 525.958 212.527 507.116 239.884 526.04C260.313 540.174 297.329 527.519 300.202 526.503C312.091 523.227 345.044 516.816 356.561 525.902C366.902 534.063 378.359 536.773 389.018 536.773C408.23 536.773 424.848 527.967 427.654 526.398C437.099 523.532 462.981 518.166 474.982 526.084C491.276 536.835 531.97 526.982 533.693 526.559C535.678 526.071 536.93 523.883 536.491 521.674V521.674Z" stroke="white" stroke-width="21.3442"/>
<path d="M219.67 178.153C243.452 178.153 262.731 158.874 262.731 135.092C262.731 111.31 243.452 92.0312 219.67 92.0312C195.888 92.0312 176.609 111.31 176.609 135.092C176.609 158.874 195.888 178.153 219.67 178.153Z" fill="white"/>
</g>
<defs>
<clipPath id="clip0">
<path d="M0 0H580V580H0V0Z" fill="white"/>
</clipPath>
</defs>
</svg>
